X: 29362
T: Newmarket House
R: hornpipe
M: 4/4
K: Adorian
|:e>d|c>A A<A A>B c>B|A>e e>d e2 d>c|B<G G<G G>A B>A|G>d d>B d<e d<e|
c>A A<A A>B c>B|A>e e>d e2 d>c|B<G G<G A<e d>e|c2 A2 A2:|
|:c>d|e>A (3AAA G>A (3AAA|e>A (3AAA e>d B>c|d>G (3GGG g>G (3GGG|B<G B>c d>e c>d|
e>A (3AAA G>A (3AAA|e>A (3AAA e2 d>c|B<G G<G A<e d>e|c2 A2 A2:|

